X: 37238
T: Siun's
R: reel
M: 4/4
K: Dmajor
(3ABc|d2 AG FAAF|GBBG FAAc|d2 AG FAdf|efge fd de|
d2 AB A3 B|GBBG FAAc|defd gfdB|Aceg fd d2||
GBBG FAAF|GEEG FDDF|GBBG FA (3ABc|d2 AG FADF|
GBBG FAAF|~E3 F GABc|defd gfdB|Aceg fd df||
eAAG A3 f|eAfA gfeg|fddc d3 e|fdaf defg|
eA ~A2 eAaA|fd ~d2 fdaf|eAef gfed|eaaf gfef||Od4||

